X:515
T: WENN IM THAU DER ABENDKUEHLE
N: F0987
O: Europa, Mitteleuropa, Deutschland
R: Natur - Lied
M: 4/4
L: 1/16
K: Eb
B4B4 | B3eG4E3GF3B | A4G4
B2e2g2e2 | B2G2E2B,2A4G4 | F8
F4F4 | F2G2=A2B2c2d2e2f2 | e2d2d4
f2d2B2F2 | G2=A2B2c2F4G2_A2 | B4z12 |
B4c4d4 | e3gB6z2
f2d2B6A2 | G12
c4c4c4 | B4G4E4
B,6C2D4 | E12

@@@ Tune index: 5946
